packages/ffe-icons/icons/open/300/md/stop_circle.svg

<svg xmlns="http://www.w3.org/2000/svg" height="24" viewBox="0 -960 960 960" width="24"><path d="M366.154-330.001h227.692q15.365 0 25.759-10.394t10.394-25.759v-227.692q0-15.365-10.394-25.759t-25.759-10.394H366.154q-15.365 0-25.759 10.394t-10.394 25.759v227.692q0 15.365 10.394 25.759t25.759 10.394Zm113.913 230q-78.836 0-148.204-29.92-69.369-29.92-120.682-81.21-51.314-51.291-81.247-120.629-29.933-69.337-29.933-148.173t29.92-148.204q29.92-69.369 81.21-120.682 51.291-51.314 120.629-81.247 69.337-29.933 148.173-29.933t148.204 29.92q69.369 29.92 120.682 81.21 51.314 51.291 81.247 120.629 29.933 69.337 29.933 148.173t-29.92 148.204q-29.92 69.369-81.21 120.682-51.291 51.314-120.629 81.247-69.337 29.933-148.173 29.933ZM480-160q134 0 227-93t93-227q0-134-93-227t-227-93q-134 0-227 93t-93 227q0 134 93 227t227 93Zm0-320Z"/></svg>

<svg xmlns="http://www.w3.org/2000/svg" height="24" viewBox="0 -960 960 960" width="24"><path d="M366.15-330h227.7q15.36 0 25.76-10.39Q630-350.79 630-366.15v-227.7q0-15.36-10.39-25.76Q609.21-630 593.85-630h-227.7q-15.36 0-25.76 10.39Q330-609.21 330-593.85v227.7q0 15.36 10.39 25.76Q350.79-330 366.15-330Zm113.92 230q-78.84 0-148.21-29.92t-120.68-81.21q-51.31-51.29-81.25-120.63Q100-401.1 100-479.93q0-78.84 29.92-148.21t81.21-120.68q51.29-51.31 120.63-81.25Q401.1-860 479.93-860q78.84 0 148.21 29.92t120.68 81.21q51.31 51.29 81.25 120.63Q860-558.9 860-480.07q0 78.84-29.92 148.21t-81.21 120.68q-51.29 51.31-120.63 81.25Q558.9-100 480.07-100Zm-.07-60q134 0 227-93t93-227q0-134-93-227t-227-93q-134 0-227 93t-93 227q0 134 93 227t227 93Zm0-320Z"/></svg>
